!!!OTL: Die gl&uuml;ckliche Nonne (15), S. 69
!!!id: T0125
**kern
*clefG2
*k[]
*C:
{8g
=1
4g
8g
8g
8a
8b
=2
4cc
8a
4.a}
=3
{4.cc
8b
8a
8g
=4
4a
8a
4g}
=5
{8g
=6
8g
8g
8g
4a
8g
=7
4f
8e
4d}
=8
{8e
=9
8f
8f
8f
4g
8f
=10
4e
8d
4c}
=11
{8g
=12
8g
8g
8g
8g
8a
8b
=13
4.cc}
=14
{4.dd
=15
8cc
8b
8a
8cc
8b
8a
=16
4g}
4.r
=17
{8g
=18
8g
8g
8g
4a
8g
=19
4f
8e
4d}
=20
{8e
=21
8f
8f
8f
4g
8f
=22
4e
8d
4c}
=23
{8g
=24
8g
8g
8g
8g
8a
8b
=25
4.cc}
=26
{4.dd
=27
8cc
8b
8a
8cc
8b
8a
=28
4g}
4.r
==
*-
!!!minrhy: 8
!!!meters: 6/8 ]  ZZ[10
!!!cut: Die gl&uuml;ckliche Nonne (15), S. 69
!!!reg: Luxemburg
!!!trd: Singendes Volk, Esch-Alzette 1937 posth.
!!!rhy1: X  X_XXXX  X_XX_.
!!!rhy2: X_.XXX  X_XX_
!!!key: T0125  08  C 6/8 ]  ZZ[10
!!!mod: HEPTATONIK IONISCH]  AMBITUS[9
!!!kad: 6521+1521+15
!!!akz: 55+16_+1765_5642_4531_55+1_+2+1+15_5642_4531_55+1_+2+1+15_
!!!fot: 'a__b__c__cs'av_d__c__cs'av_d__
!!!for: 'a__b__c__c__d__dv_c__c__d__dv_
!!!fok: '^a_\__\__^d_/__\__\__^d_/__\__
!! PHRAS[VORWIEGEND AUFTAKTIG]
!!!fkt: Liebeslieder
!!!bem: Blascheid (Betzdorf/Berg, fragm.), hhh Johann Brimeier, 1902
!! THILL, Mathias:
!! PR[20] 2K[4] 2G[19] 3K[4] 3G[0] 4A[7] 4Ü[0] 5A[0] 6K[0] 6G[0]
!! 7K[0] 7G[0] 8A[0] MEHR[0] SI[33] ABS[54] SR[22] SP[11]
!! ST[12] 2k[13] 2g[33] 3k[0] 3g[0] 4d[0] 4ü[0] 5d[0] 6k[0] 6g[0]
!! 7k[0] 7g[0] 8d[0] mehr[0] si[46] dm[-13] sr[46] sp[0]
!! 1F[3] 2F[84] 3F[3] 4F[5] LF[0] 2P[0] 3P[3] 4P[0] TRI[0] DF[5] AB[58]
!! TF[0] U3K[0] U3[0] U4[0] U4Ü[0] U5[2] U6K[0] U6[0] U7K[4] U7[2]
!! N1[22] N2K[0] N2[22] N3K[22] N3[0] N4[20] N4Ü[0] N5[7] N6K[0] N6[0]
!!!n7k: 0] N7[0] O1[0] O2K[0] O2[0] O3K[0] O3[0] HÖ[0
!!!RNB: symbol: &uuml;  = u umlaut (UTF-8: Ã¼)
